assets/images/icons/src/columns.svg

<?xml version="1.0" encoding="utf-8"?>
<!-- Generated by IcoMoon.io -->
<!DOCTYPE svg PUBLIC "-//W3C//DTD SVG 1.1//EN" "http://www.w3.org/Graphics/SVG/1.1/DTD/svg11.dtd">
<svg version="1.1" xmlns="http://www.w3.org/2000/svg" xmlns:xlink="http://www.w3.org/1999/xlink" width="13" height="14" viewBox="0 0 13 14">
<path fill="#444444" d="M1.25 12h4.75v-9h-5v8.75q0 0.102 0.074 0.176t0.176 0.074zM12 11.75v-8.75h-5v9h4.75q0.102 0 0.176-0.074t0.074-0.176zM13 2.25v9.5q0 0.516-0.367 0.883t-0.883 0.367h-10.5q-0.516 0-0.883-0.367t-0.367-0.883v-9.5q0-0.516 0.367-0.883t0.883-0.367h10.5q0.516 0 0.883 0.367t0.367 0.883z"></path>
</svg>

<svg xmlns="http://www.w3.org/2000/svg" width="13" height="14" viewBox="0 0 13 14"><path fill="#444" d="M1.25 12H6V3H1v8.75q0 .102.074.176T1.25 12zM12 11.75V3H7v9h4.75q.102 0 .176-.074T12 11.75zm1-9.5v9.5q0 .516-.367.883T11.75 13H1.25q-.516 0-.883-.367T0 11.75v-9.5q0-.516.367-.883T1.25 1h10.5q.516 0 .883.367T13 2.25z"/></svg>
